X:416
T: Latour d' Auvergne (135), S. 805f
N: T0304
O: Luxemburg
S: Singendes Volk, Esch-Alzette 1937, posth.]
N: Junglinster, hhh Vater des Autors vor 1900
R: historische, Kriegs- und Soldatenlieder]
M: 4/4
L: 1/16
K: A
E2F2G2 | A6A2B3AG2F2 | F2E2E4z2
c2c2c2 | c6B2A2G2F2E2 | A8z2
E2F2G2 | A6A2B3AG2F2 | F2E2E4z2
E2G2A2 | B2e4G2B2B2AGF2 | E8z2
E2F2E2 | B6B2B2d2c2B2 | A8z2
c2c2c2 | B6B2A2G2F2G2 | A8z2
E2F2E2 | B6B2B2d2c2B2 | e8
d8 | F8B8 | A8z2E2^D2E2 | c8B8 | A8z2

@@@ Tune index: 8470
